Papirus/22x22/panel/hp-indicator.svg

<?xml version="1.0" encoding="UTF-8" standalone="no"?>
<svg xmlns:dc="http://purl.org/dc/elements/1.1/" xmlns:cc="http://creativecommons.org/ns#" xmlns:rdf="http://www.w3.org/1999/02/22-rdf-syntax-ns#" xmlns:svg="http://www.w3.org/2000/svg" xmlns="http://www.w3.org/2000/svg" version="1.0" width="22" height="22" id="svg2817">
    <defs id="defs221">
        <clipPath id="clipPath-287991968">
            <g transform="translate(0,-1004.4)" id="g17">
                <rect style="fill:#1890d0" x="1" y="1005.4" width="46" height="46" rx="4" id="rect19"/>
            </g>
        </clipPath>
    </defs>
    <metadata id="metadata57">
        <rdf:RDF>
            <cc:Work rdf:about="">
                <dc:format>
                    image/svg+xml
                </dc:format>
                <dc:type rdf:resource="http://purl.org/dc/dcmitype/StillImage"/>
                <dc:title/>
            </cc:Work>
        </rdf:RDF>
    </metadata>
    <path id="rect4203-0" d="m 11,3 c -0.160259,0 -0.316737,0.014235 -0.474609,0.023437 -0.471036,1.3439017 -0.95038,2.7161882 -1.4140629,4.0292965 0.655902,0.02441 1.6702309,0.122858 2.1269529,0.714844 0.215193,0.278898 0.196485,0.71508 0.07031,1.054688 -0.593457,1.6648185 -1.202827,3.3255765 -1.792969,4.9902345 -0.5215528,0.0073 -1.0409472,-0.0044 -1.5625,0 -0.072991,-0.0015 -0.1428342,0.01152 -0.2128906,-0.01563 0.6645918,-1.826274 1.3155156,-3.669699 1.96875,-5.5019535 -0.3110159,-0.0044 -0.6191455,0.0059 -0.9316406,0 -0.047317,0.100127 -0.087103,0.211888 -0.1230469,0.316411 -0.6019037,1.6890665 -1.2096407,3.3702275 -1.8085938,5.0605475 -0.028608,0.04291 -0.020401,0.140625 -0.087891,0.140625 -0.4984742,0.0015 -0.9971619,-0.003 -1.4941406,0 C 5.173447,13.811033 5.0872946,13.820597 5,13.794922 6.1875949,10.504663 7.3821595,6.7836671 8.5722656,3.375 5.3345633,4.3984171 3,7.415204 3,11 c 0,3.678486 2.4603043,6.753217 5.8300781,7.695312 1.3049299,-3.628556 2.8094209,-7.72027 4.0781249,-11.279296 0.01276,-0.02698 0.02244,-0.09362 0.03516,-0.121094 l 0,-0.0019 c 0.836651,0.0088 1.69464,0.01612 2.53125,0.01758 0.27363,0.0059 0.541945,-0.03052 0.808594,0.05273 0.306643,0.08325 0.590431,0.3223 0.683594,0.634766 0.07042,0.244262 0.01698,0.501243 -0.07031,0.736328 -0.53291,1.555943 -1.082643,3.089922 -1.632812,4.638672 -0.137542,0.403789 -0.763653,0.653666 -1.177734,0.667969 -0.653236,0.01283 -1.301346,0.0047 -1.953126,0.01758 -0.541763,1.509515 -1.335987,3.331166 -1.923831,4.902291 C 10.469215,18.986264 10.732901,19 11,19 15.432,19 19,15.432 19,11 19,6.568 15.432,3 11,3 Z M 8.8300781,18.695312 c 0.2225999,0.06223 0.447622,0.11901 0.6777344,0.16211 -0.2291449,-0.045 -0.4555434,-0.09999 -0.6777344,-0.16211 z M 8.5722656,3.375 C 8.8824815,3.2769427 9.2012054,3.1990705 9.5273438,3.140625 9.2018518,3.2007706 8.8824336,3.2769579 8.5722656,3.375 Z M 9.5273438,3.140625 C 9.852223,3.0824051 10.184475,3.0432318 10.521484,3.0234375 10.184417,3.0432473 9.8516891,3.0806913 9.5273438,3.140625 Z m 4.9882812,5.134766 c -0.0265,-0.0029 -0.05227,-0.004 -0.07813,0.0039 l 0,-0.002 c -0.01724,0.0044 -0.0399,0.02085 -0.05273,0.03516 -0.570014,1.596074 -1.133286,3.188126 -1.705079,4.78125 0.313967,0.0015 0.635625,0.02164 0.949219,0 0.553119,-1.607795 1.125974,-3.211428 1.6875,-4.814453 -0.240608,-0.0059 -0.478628,0.0044 -0.720703,0 -0.02585,0.0037 -0.05358,-0.001 -0.08008,-0.0039 z M 9.5703125,18.867188 c 0.2086318,0.03738 0.4187978,0.07277 0.6328125,0.09375 -0.2143993,-0.02105 -0.4242876,-0.05452 -0.6328125,-0.09375 z" style="opacity:1000002;fill:#ffffff;fill-opacity:1"/>
    <g transform="matrix(0.36676876,0,0,0.36673411,-0.8632378,5.2145284)" id="g43" style="fill:#ffffff">
        <g clip-path="url(#clipPath-287991968)" id="g45" style="fill:#ffffff">
            <g transform="translate(0,-1)" id="g47" style="fill:#ffffff">
<!--color: #015ca7-->
            </g>
        </g>
    </g>
</svg>

<?xml version="1.0" encoding="UTF-8" standalone="no"?>
<svg id="svg2817" xmlns:rdf="http://www.w3.org/1999/02/22-rdf-syntax-ns#" xmlns="http://www.w3.org/2000/svg" height="22" width="22" version="1.0" xmlns:cc="http://creativecommons.org/ns#" xmlns:dc="http://purl.org/dc/elements/1.1/">
 <defs id="defs221">
  <clipPath id="clipPath-287991968">
   <g id="g17" transform="translate(0,-1004.4)">
    <rect id="rect19" rx="4" height="46" width="46" y="1005.4" x="1" fill="#1890d0"/>
   </g>
  </clipPath>
 </defs>
 <metadata id="metadata57">
  <rdf:RDF>
   <cc:Work rdf:about="">
    <dc:format>image/svg+xml</dc:format>
    <dc:type rdf:resource="http://purl.org/dc/dcmitype/StillImage"/>
    <dc:title/>
   </cc:Work>
  </rdf:RDF>
 </metadata>
 <path id="rect4203-0" opacity="1e6" d="m11 3c-0.16026 0-0.31674 0.014235-0.47461 0.023437-0.47104 1.3439-0.95038 2.7162-1.4141 4.0293 0.6559 0.02441 1.6702 0.12286 2.127 0.71484 0.21519 0.2789 0.19648 0.71508 0.07031 1.0547-0.59346 1.6648-1.2028 3.3256-1.793 4.9902-0.52155 0.0073-1.0409-0.0044-1.5625 0-0.072991-0.0015-0.14283 0.01152-0.21289-0.01563 0.66459-1.8263 1.3155-3.6697 1.9688-5.502-0.31102-0.0044-0.61915 0.0059-0.93164 0-0.047317 0.10013-0.087103 0.21189-0.12305 0.31641-0.6019 1.6891-1.2096 3.3702-1.8086 5.0605-0.028608 0.04291-0.020401 0.14062-0.087891 0.14062-0.49847 0.0015-0.99716-0.003-1.4941 0-0.0904-0.001-0.1765 0.009-0.2638-0.017 1.1876-3.29 2.3822-7.0113 3.5723-10.42-3.2377 1.0234-5.5723 4.0402-5.5723 7.625 0 3.6785 2.4603 6.7532 5.8301 7.6953 1.3049-3.6286 2.8094-7.7203 4.0781-11.279 0.01276-0.02698 0.02244-0.09362 0.03516-0.12109v-0.0019c0.83665 0.0088 1.6946 0.01612 2.5312 0.01758 0.27363 0.0059 0.54194-0.03052 0.80859 0.05273 0.30664 0.08325 0.59043 0.3223 0.68359 0.63477 0.07042 0.24426 0.01698 0.50124-0.07031 0.73633-0.53291 1.5559-1.0826 3.0899-1.6328 4.6387-0.13754 0.40379-0.76365 0.65367-1.1777 0.66797-0.65324 0.01283-1.3013 0.0047-1.9531 0.01758-0.54176 1.5095-1.336 3.3312-1.9238 4.9023 0.26 0.025 0.524 0.039 0.791 0.039 4.432 0 8-3.568 8-8s-3.568-8-8-8zm-2.1699 15.695c0.2226 0.06223 0.44762 0.11901 0.67773 0.16211-0.22914-0.045-0.45554-0.09999-0.67773-0.16211zm-0.2578-15.32c0.3102-0.0981 0.6289-0.1759 0.955-0.2344-0.3254 0.0602-0.6449 0.1364-0.955 0.2344zm0.955-0.2344c0.3249-0.0582 0.6567-0.0974 0.9937-0.1172-0.337 0.0198-0.6693 0.0573-0.9937 0.1172zm4.9883 5.1348c-0.0265-0.0029-0.05227-0.004-0.07813 0.0039v-0.002c-0.01724 0.0044-0.0399 0.02085-0.05273 0.03516-0.57001 1.5961-1.1333 3.1881-1.7051 4.7812 0.31397 0.0015 0.63562 0.02164 0.94922 0 0.55312-1.6078 1.126-3.2114 1.6875-4.8145-0.24061-0.0059-0.47863 0.0044-0.7207 0-0.02585 0.0037-0.05358-0.001-0.08008-0.0039zm-4.9457 10.592c0.20863 0.03738 0.4188 0.07277 0.63281 0.09375-0.2144-0.02105-0.42429-0.05452-0.63281-0.09375z" fill="#fff"/>
 <g id="g43" fill="#fff" transform="matrix(.36677 0 0 .36673 -.86324 5.2145)">
  <g id="g45" fill="#fff" clip-path="url(#clipPath-287991968)">
   <g id="g47" fill="#fff" transform="translate(0,-1)"><!--color: #015ca7--></g>
  </g>
 </g>
</svg>
